icons/hexagon-info.svg

<svg xmlns="http://www.w3.org/2000/svg" width="24" height="24" viewBox="0 0 24 24">
  <path d="M16.3173342,1 C17.0224657,1 17.6754933,1.37131518 18.0360686,1.97728201 L18.0360686,1.97728201 L23.3914405,10.977282 C23.7664613,11.6075253 23.7664613,12.3924747 23.3914405,13.022718 L23.3914405,13.022718 L18.0360686,22.022718 C17.6754933,22.6286848 17.0224657,23 16.3173342,23 L16.3173342,23 L7.68266576,23 C6.97753431,23 6.32450667,22.6286848 5.96393136,22.022718 L5.96393136,22.022718 L0.608559463,13.022718 C0.233538656,12.3924747 0.233538656,11.6075253 0.608559463,10.977282 L0.608559463,10.977282 L5.96393136,1.97728201 C6.32450667,1.37131518 6.97753431,1 7.68266576,1 L7.68266576,1 Z M12,11 C11.4477153,11 11,11.4477153 11,12 L11,17 C11,17.5522847 11.4477153,18 12,18 C12.5522847,18 13,17.5522847 13,17 L13,12 C13,11.4477153 12.5522847,11 12,11 Z M12,6 C11.1715729,6 10.5,6.67157288 10.5,7.5 C10.5,8.32842712 11.1715729,9 12,9 C12.8284271,9 13.5,8.32842712 13.5,7.5 C13.5,6.67157288 12.8284271,6 12,6 Z"/>
</svg>

<svg xmlns="http://www.w3.org/2000/svg" viewBox="0 0 24 24">
  <path d="M16.32 1a2 2 0 0 1 1.72.98l5.35 9a2 2 0 0 1 0 2.04l-5.35 9a2 2 0 0 1-1.72.98H7.68a2 2 0 0 1-1.72-.98l-5.35-9a2 2 0 0 1 0-2.04l5.35-9A2 2 0 0 1 7.68 1zM12 11a1 1 0 0 0-1 1v5a1 1 0 0 0 2 0v-5a1 1 0 0 0-1-1zm0-5a1.5 1.5 0 1 0 0 3 1.5 1.5 0 0 0 0-3z"/>
</svg>
